; generated by PrusaSlicer 2.4.0+arm64 on 2022-02-26 at 09:01:56 UTC

; 

; external perimeters extrusion width = 0.45mm
; perimeters extrusion width = 0.45mm
; infill extrusion width = 0.45mm
; solid infill extrusion width = 0.45mm
; top infill extrusion width = 0.40mm
; first layer extrusion width = 0.42mm

M73 P0 R25
M73 Q0 S25
M201 X1000 Y1000 Z200 E5000 ; sets maximum accelerations, mm/sec^2
M203 X200 Y200 Z12 E120 ; sets maximum feedrates, mm/sec
M204 P1250 R1250 T1250 ; sets acceleration (P, T) and retract acceleration (R), mm/sec^2
M205 X8.00 Y8.00 Z0.40 E4.50 ; sets the jerk limits, mm/sec
M205 S0 T0 ; sets the minimum extruding and travel feed rate, mm/sec
M107
;TYPE:Custom
M862.3 P "MK3" ; printer model check
M862.1 P0.4 ; nozzle diameter check
M115 U3.10.0 ; tell printer latest fw version
G90 ; use absolute coordinates
M83 ; extruder relative mode
M104 S215 ; set extruder temp
M140 S60 ; set bed temp
M190 S60 ; wait for bed temp
M109 S215 ; wait for extruder temp
G28 W ; home all without mesh bed level
G80 ; mesh bed leveling
G1 Z0.2 F720
G1 Y-3 F1000 ; go outside print area
G92 E0
G1 X60 E9 F1000 ; intro line
G1 X100 E12.5 F1000 ; intro line
G92 E0
M221 S95

; Don't change E values below. Excessive value can damage the printer.

M907 E538 ; set extruder motor current
G21 ; set units to millimeters
G90 ; use absolute coordinates
M83 ; use relative distances for extrusion
M900 K0.05 ; Filament gcode LA 1.5
M900 K30 ; Filament gcode LA 1.0
M107
;LAYER_CHANGE
;Z:0.2
;HEIGHT:0.2
;BEFORE_LAYER_CHANGE
G92 E0.0
;0.2


G1 E-.8 F2100
G1 Z.4 F720
;AFTER_LAYER_CHANGE
;0.2
G1 X108.139 Y90.083 F10800
G1 Z.2 F720
G1 E.8 F2100
M204 S800
;TYPE:Skirt/Brim
;WIDTH:0.42
G1 F1200
M73 P0 R24
G1 X109.205 Y89.07 E.04612
G1 X110.5 Y88.746 E.04186
G1 X139.5 Y88.746 E.90926
G1 X140.917 Y89.139 E.04612
G1 X141.93 Y90.205 E.04612
G1 X142.254 Y91.5 E.04186
G1 X142.254 Y118.5 E.84656
G1 X141.861 Y119.917 E.04612
G1 X140.795 Y120.93 E.04612
G1 X139.5 Y121.254 E.04186
G1 X110.5 Y121.254 E.90926
G1 X109.083 Y120.861 E.04612
G1 X108.07 Y119.795 E.04612
G1 X107.746 Y118.5 E.04186
G1 X107.746 Y91.5 E.84656
G1 X108.123 Y90.141 E.04424
M204 S1000
G1 X108.497 Y90.253 F10800
M204 S800
G1 F1200
G1 X108.515 Y90.193 E.00195
G1 X109.56 Y89.317 E.04278
G1 X110.5 Y89.123 E.03008
G1 X139.5 Y89.123 E.90926
G1 X140.807 Y89.515 E.04278
M73 P1 R24
M73 Q1 S25
G1 X141.683 Y90.56 E.04278
G1 X141.877 Y91.5 E.03008
G1 X141.877 Y118.5 E.84656
G1 X141.485 Y119.807 E.04278
G1 X140.44 Y120.683 E.04278
G1 X139.5 Y120.877 E.03008
G1 X110.5 Y120.877 E.90926
M73 Q1 S24
G1 X109.193 Y120.485 E.04278
G1 X108.317 Y119.44 E.04278
G1 X108.123 Y118.5 E.03008
G1 X108.123 Y91.5 E.84656
G1 X108.48 Y90.31 E.03895
M204 S1000
; printing object ESP32-CamMount.stl id:0 copy 0
;WIPE_START
G1 F8640
G1 X108.515 Y90.193 E-.0282
G1 X109.56 Y89.317 E-.31505
G1 X110.5 Y89.123 E-.22155
G1 X111.346 Y89.123 E-.1952
;WIPE_END
G1 E-.04 F2100
G1 Z.6 F720
G1 X125.345 Y115.77 F10800
G1 Z.2 F720
G1 E.8 F2100
M204 S800
;TYPE:External perimeter
G1 F1200
G1 X125.462 Y115.622 E.00592
G1 X125.732 Y115.407 E.01082
G1 X125.917 Y115.327 E.00633
G1 X126.237 Y115.272 E.01018
G1 X126.45 Y115.285 E.00668
G1 X126.63 Y115.33 E.00581
G1 X126.808 Y115.407 E.00609
G1 X127.078 Y115.622 E.01083
G1 X127.195 Y115.77 E.00592
G1 X127.283 Y115.936 E.0059
G1 X127.332 Y116.118 E.0059
G1 X127.352 Y116.43 E.00979
G1 X127.332 Y116.74 E.00974
G1 X127.291 Y116.903 E.00526
G1 X127.196 Y117.088 E.00654
G1 X127.078 Y117.237 E.00597
G1 X126.808 Y117.453 E.01082
G1 X126.622 Y117.533 E.00635
G1 X126.27 Y117.591 E.01119
G1 X125.918 Y117.533 E.01119
G1 X125.732 Y117.453 E.00635
G1 X125.462 Y117.237 E.01082
G1 X125.345 Y117.09 E.00592
G1 X125.257 Y116.923 E.0059
G1 X125.208 Y116.742 E.0059
G1 X125.188 Y116.43 E.00979
G1 X125.208 Y116.118 E.00979
G1 X125.257 Y115.936 E.0059
G1 X125.317 Y115.823 E.00402
M204 S1000
G1 X125.259 Y115.602 F10800
;WIPE_START
G1 F8640
G1 X125.462 Y115.622 E-.05727
G1 X125.732 Y115.407 E-.07971
G1 X125.917 Y115.327 E-.04661
G1 X126.237 Y115.272 E-.075
G1 X126.45 Y115.285 E-.04921
G1 X126.63 Y115.33 E-.04275
G1 X126.808 Y115.407 E-.04482
G1 X127.078 Y115.622 E-.07972
G1 X127.195 Y115.77 E-.04359
G1 X127.283 Y115.936 E-.04346
G1 X127.332 Y116.118 E-.04345
G1 X127.352 Y116.43 E-.07212
G1 X127.332 Y116.74 E-.07174
G1 X127.321 Y116.784 E-.01053
;WIPE_END
G1 E-.04 F2100
G1 Z.6 F720
G1 X125 Y117.245 F10800
G1 Z.2 F720
G1 E.8 F2100
M204 S800
;TYPE:Perimeter
G1 F1200
G1 X125.194 Y117.505 E.01019
G1 X125.454 Y117.714 E.01046
G1 X124.546 Y117.714 E.02849
G1 X124.806 Y117.505 E.01046
G1 X124.972 Y117.298 E.00833
M204 S1000
;WIPE_START
G1 F8640
G1 X125.194 Y117.505 E-.07022
G1 X125.454 Y117.714 E-.07703
G1 X124.546 Y117.714 E-.20978
G1 X124.806 Y117.505 E-.077
G1 X124.972 Y117.298 E-.06135
;WIPE_END
G1 E-.30462 F2100
G1 Z.6 F720
G1 X124.743 Y115.936 F10800
G1 Z.2 F720
G1 E.8 F2100
M204 S800
;TYPE:External perimeter
G1 F1200
G1 X124.792 Y116.118 E.0059
G1 X124.812 Y116.43 E.00979
G1 X124.792 Y116.742 E.00979
G1 X124.743 Y116.923 E.0059
G1 X124.655 Y117.09 E.0059
G1 X124.538 Y117.237 E.00592
G1 X124.268 Y117.453 E.01083
G1 X124.082 Y117.533 E.00635
G1 X123.73 Y117.591 E.01119
G1 X123.378 Y117.533 E.01119
G1 X123.192 Y117.453 E.00635
G1 X122.922 Y117.237 E.01082
G1 X122.805 Y117.09 E.00592
G1 X122.717 Y116.923 E.0059
G1 X122.668 Y116.742 E.0059
G1 X122.648 Y116.43 E.00979
G1 X122.668 Y116.118 E.00979
G1 X122.717 Y115.936 E.0059
G1 X122.805 Y115.77 E.0059
G1 X122.922 Y115.622 E.00592
G1 X123.192 Y115.407 E.01082
G1 X123.377 Y115.327 E.00633
G1 X123.697 Y115.272 E.01018
G1 X123.91 Y115.285 E.00668
G1 X124.09 Y115.33 E.00581
G1 X124.268 Y115.407 E.00609
G1 X124.538 Y115.622 E.01082
G1 X124.655 Y115.77 E.00592
G1 X124.715 Y115.883 E.00402
M204 S1000
G1 X124.929 Y115.966 F10800
;WIPE_START
G1 F8640
G1 X124.792 Y116.118 E-.05704
G1 X124.812 Y116.43 E-.07212
G1 X124.792 Y116.742 E-.07213
G1 X124.743 Y116.923 E-.04345
G1 X124.655 Y117.09 E-.04346
G1 X124.538 Y117.237 E-.04358
G1 X124.268 Y117.453 E-.07974
G1 X124.082 Y117.533 E-.04678
G1 X123.73 Y117.591 E-.08238
G1 X123.378 Y117.533 E-.0824
G1 X123.192 Y117.453 E-.04677
G1 X122.922 Y117.237 E-.07971
G1 X122.894 Y117.202 E-.01045
;WIPE_END
G1 E-.04 F2100
G1 Z.6 F720
G1 X122.488 Y117.297 F10800
G1 Z.2 F720
G1 E.8 F2100
M204 S800
;TYPE:Perimeter
G1 F1200
G1 X122.654 Y117.505 E.00835
G1 X122.914 Y117.714 E.01045
G1 X122.006 Y117.713 E.02848
G1 X122.266 Y117.505 E.01045
G1 X122.46 Y117.245 E.01018
M204 S1000
;WIPE_START
G1 F8640
G1 X122.654 Y117.505 E-.075
G1 X122.914 Y117.714 E-.07697
G1 X122.006 Y117.713 E-.20974
G1 X122.266 Y117.505 E-.07695
G1 X122.46 Y117.245 E-.07495
;WIPE_END
G1 E-.28639 F2100
G1 Z.6 F720
G1 X119.948 Y117.297 F10800
G1 Z.2 F720
G1 E.8 F2100
M204 S800
G1 F1200
G1 X120.114 Y117.505 E.00835
G1 X120.374 Y117.713 E.01044
G1 X119.466 Y117.713 E.02846
G1 X119.726 Y117.505 E.01044
G1 X119.92 Y117.245 E.01017
M204 S1000
G1 X120.265 Y117.09 F10800
M204 S800
;TYPE:External perimeter
G1 F1200
G1 X120.177 Y116.923 E.0059
G1 X120.128 Y116.742 E.0059
G1 X120.108 Y116.43 E.00979
G1 X120.128 Y116.118 E.00979
G1 X120.177 Y115.936 E.0059
G1 X120.265 Y115.77 E.0059
G1 X120.382 Y115.622 E.00592
G1 X120.652 Y115.407 E.01083
G1 X120.837 Y115.327 E.00633
G1 X121.157 Y115.272 E.01018
G1 X121.37 Y115.285 E.00668
G1 X121.55 Y115.33 E.00581
G1 X121.728 Y115.407 E.00608
G1 X121.998 Y115.622 E.01082
G1 X122.115 Y115.77 E.00592
G1 X122.204 Y115.936 E.0059
G1 X122.252 Y116.118 E.0059
G1 X122.272 Y116.43 E.00979
G1 X122.252 Y116.742 E.00979
G1 X122.204 Y116.923 E.0059
G1 X122.115 Y117.09 E.0059
G1 X121.998 Y117.237 E.00592
G1 X121.728 Y117.453 E.01082
G1 X121.542 Y117.533 E.00635
G1 X121.19 Y117.591 E.01119
G1 X120.838 Y117.533 E.01119
G1 X120.652 Y117.453 E.00635
G1 X120.382 Y117.237 E.01082
G1 X120.302 Y117.137 E.00404
M204 S1000
G1 X120.077 Y117.103 F10800
;WIPE_START
G1 F8640
G1 X120.177 Y116.923 E-.05713
G1 X120.128 Y116.742 E-.04345
G1 X120.108 Y116.43 E-.07213
G1 X120.128 Y116.118 E-.07213
G1 X120.177 Y115.936 E-.04345
G1 X120.265 Y115.77 E-.04346
G1 X120.382 Y115.622 E-.04359
G1 X120.652 Y115.407 E-.07974
G1 X120.837 Y115.327 E-.04662
G1 X121.157 Y115.272 E-.07497
G1 X121.37 Y115.285 E-.04922
G1 X121.55 Y115.33 E-.04276
G1 X121.728 Y115.407 E-.04481
G1 X121.886 Y115.533 E-.04654
;WIPE_END
G1 E-.04 F2100
G1 Z.6 F720
G1 X119.664 Y115.936 F10800
G1 Z.2 F720
G1 E.8 F2100
M204 S800
G1 F1200
G1 X119.712 Y116.118 E.0059
G1 X119.732 Y116.43 E.00979
G1 X119.712 Y116.742 E.00979
G1 X119.664 Y116.923 E.0059
G1 X119.575 Y117.09 E.0059
G1 X119.458 Y117.237 E.00592
G1 X119.188 Y117.453 E.01082
G1 X119.003 Y117.533 E.00634
G1 X118.651 Y117.592 E.01117
G1 X118.291 Y117.536 E.01143
G1 X117.974 Y117.375 E.01116
G1 X117.823 Y117.246 E.00624
G1 X117.619 Y116.965 E.01088
G1 X117.542 Y116.781 E.00624
G1 X117.487 Y116.43 E.01115
G1 X117.542 Y116.079 E.01115
G1 X117.619 Y115.895 E.00624
G1 X117.828 Y115.607 E.01115
G1 X118.115 Y115.398 E.01115
G1 X118.299 Y115.323 E.00622
G1 X118.619 Y115.271 E.01016
G1 X118.831 Y115.285 E.00667
G1 X119.01 Y115.33 E.00579
G1 X119.188 Y115.407 E.00608
G1 X119.458 Y115.622 E.01082
G1 X119.575 Y115.77 E.00592
G1 X119.635 Y115.883 E.00402
M204 S1000
G1 X119.849 Y115.966 F10800
;WIPE_START
G1 F8640
G1 X119.712 Y116.118 E-.05704
G1 X119.732 Y116.43 E-.07213
G1 X119.712 Y116.742 E-.07213
G1 X119.664 Y116.923 E-.04345
G1 X119.575 Y117.09 E-.04345
G1 X119.458 Y117.237 E-.04359
G1 X119.188 Y117.453 E-.0797
G1 X119.003 Y117.533 E-.0467
G1 X118.651 Y117.592 E-.08226
G1 X118.291 Y117.536 E-.08417
G1 X117.974 Y117.375 E-.08216
G1 X117.823 Y117.246 E-.04593
G1 X117.804 Y117.22 E-.00728
;WIPE_END
G1 E-.04 F2100
G1 Z.6 F720
G1 X117.808 Y117.713 F10800
G1 Z.2 F720
G1 E.8 F2100
M204 S800
;TYPE:Perimeter
G1 F1200
G1 X116.188 Y117.713 E.05078
G1 X116.343 Y117.7 E.00488
G1 X116.611 Y117.619 E.00877
G1 X116.923 Y117.434 E.01137
G1 X117.117 Y117.241 E.00858
G1 X117.238 Y117.031 E.0076
G1 X117.287 Y117.15 E.00405
G1 X117.544 Y117.503 E.01368
G1 X117.755 Y117.684 E.00872
M204 S1000
;WIPE_START
G1 F8640
G1 X116.188 Y117.713 E-.36198
G1 X116.343 Y117.7 E-.03596
G1 X116.611 Y117.619 E-.0646
G1 X116.923 Y117.434 E-.08374
G1 X117.117 Y117.241 E-.06317
G1 X117.238 Y117.031 E-.05594
G1 X117.287 Y117.15 E-.02983
G1 X117.452 Y117.377 E-.06477
;WIPE_END
G1 E-.04 F2100
G1 Z.6 F720
G1 X116.971 Y116.126 F10800
G1 Z.2 F720
G1 E.8 F2100
M204 S800
;TYPE:External perimeter
G1 F1200
G1 X117.024 Y116.43 E.00966
G1 X116.969 Y116.742 E.00995
G1 X116.815 Y117.009 E.00966
G1 X116.69 Y117.134 E.00553
G1 X116.459 Y117.271 E.00844
G1 X116.272 Y117.327 E.00612
G1 X116.101 Y117.342 E.00537
G1 X115.798 Y117.289 E.00966
G1 X115.531 Y117.135 E.00966
G1 X115.405 Y117.009 E.00556
G1 X115.251 Y116.742 E.00966
G1 X115.196 Y116.43 E.00995
G1 X115.251 Y116.117 E.00995
G1 X115.41 Y115.842 E.00995
G1 X115.646 Y115.644 E.00966
G1 X115.806 Y115.57 E.00553
G1 X116.07 Y115.52 E.00844
G1 X116.265 Y115.531 E.00612
G1 X116.431 Y115.576 E.00538
G1 X116.698 Y115.73 E.00966
G1 X116.896 Y115.966 E.00966
G1 X116.945 Y116.072 E.00368
M204 S1000
G1 X117.272 Y116.19 F10800
;WIPE_START
G1 F8640
G1 X117.024 Y116.43 E-.08458
G1 X116.969 Y116.742 E-.0733
G1 X116.815 Y117.009 E-.07113
G1 X116.69 Y117.134 E-.04071
G1 X116.459 Y117.271 E-.06218
G1 X116.272 Y117.327 E-.04506
G1 X116.101 Y117.342 E-.03958
G1 X115.798 Y117.289 E-.07113
G1 X115.531 Y117.135 E-.07113
G1 X115.405 Y117.009 E-.04098
G1 X115.251 Y116.742 E-.07113
G1 X115.196 Y116.43 E-.07329
G1 X115.208 Y116.362 E-.0158
;WIPE_END
G1 E-.04 F2100
G1 Z.6 F720
G1 X127.797 Y115.936 F10800
G1 Z.2 F720
G1 E.8 F2100
M204 S800
G1 F1200
G1 X127.885 Y115.77 E.0059
G1 X127.998 Y115.629 E.00566
G1 X128.129 Y115.506 E.00563
G1 X128.284 Y115.404 E.00581
G1 X128.455 Y115.333 E.00582
G1 X128.636 Y115.292 E.00582
G1 X128.8 Y115.287 E.00515
G1 X129.001 Y115.314 E.00636
G1 X129.176 Y115.371 E.00576
G1 X129.346 Y115.466 E.00611
G1 X129.586 Y115.72 E.01096
G1 X129.704 Y116.022 E.01016
G1 X129.773 Y116.43 E.01298
G1 X129.704 Y116.838 E.01298
G1 X129.586 Y117.14 E.01016
G1 X129.346 Y117.394 E.01096
G1 X129.168 Y117.493 E.00638
G1 X128.831 Y117.574 E.01086
G1 X128.636 Y117.567 E.00613
G1 X128.455 Y117.526 E.00582
G1 X128.284 Y117.455 E.00582
G1 X128.129 Y117.353 E.00581
G1 X127.998 Y117.231 E.00564
G1 X127.885 Y117.09 E.00566
G1 X127.797 Y116.923 E.0059
G1 X127.748 Y116.742 E.0059
G1 X127.728 Y116.43 E.0098
G1 X127.748 Y116.118 E.0098
G1 X127.781 Y115.994 E.00402
M204 S1000
G1 X127.679 Y115.789 F10800
;WIPE_START
G1 F8640
G1 X127.885 Y115.77 E-.05706
G1 X127.998 Y115.629 E-.04166
G1 X128.129 Y115.506 E-.04149
G1 X128.284 Y115.404 E-.04279
G1 X128.455 Y115.333 E-.04286
G1 X128.636 Y115.292 E-.04287
G1 X128.8 Y115.287 E-.03791
G1 X129.001 Y115.314 E-.0468
G1 X129.176 Y115.371 E-.04239
G1 X129.346 Y115.466 E-.045
G1 X129.586 Y115.72 E-.08075
G1 X129.704 Y116.022 E-.07483
G1 X129.773 Y116.43 E-.09559
G1 X129.724 Y116.72 E-.06801
;WIPE_END
G1 E-.04 F2100
G1 Z.6 F720
G1 X127.568 Y117.298 F10800
G1 Z.2 F720
G1 E.8 F2100
M204 S800
;TYPE:Perimeter
G1 F1200
G1 X127.72 Y117.487 E.00761
G1 X127.895 Y117.651 E.0075
G1 X127.991 Y117.714 E.0036
G1 X127.085 Y117.714 E.02839
G1 X127.346 Y117.505 E.01047
G1 X127.54 Y117.245 E.01019
M204 S1000
;WIPE_START
G1 F8640
G1 X127.72 Y117.487 E-.06972
G1 X127.895 Y117.651 E-.05526
G1 X127.991 Y117.714 E-.0265
G1 X127.085 Y117.714 E-.20905
G1 X127.346 Y117.505 E-.07708
G1 X127.54 Y117.245 E-.07505
;WIPE_END
G1 E-.28734 F2100
G1 Z.6 F720
G1 X129.587 Y117.714 F10800
G1 Z.2 F720
G1 E.8 F2100
M204 S800
G1 F1200
G1 X129.547 Y117.714 E.00128
G1 X129.564 Y117.704 E.00064
M204 S1000
;WIPE_START
G1 F8640
G1 X129.547 Y117.714 E-.0047
G1 X129.564 Y117.704 E-.0047
;WIPE_END
G1 E-.7906 F2100
G1 Z.6 F720
G1 X126.757 Y107.811 F10800
G1 Z.2 F720
G1 E.8 F2100
M204 S800
G1 F1200
G1 X126.647 Y107.8 E.00345
G1 X126.124 Y107.641 E.01715
G1 X125.641 Y107.383 E.01715
G1 X125.218 Y107.036 E.01715
G1 X124.871 Y106.613 E.01715
G1 X124.613 Y106.131 E.01715
G1 X124.455 Y105.607 E.01715
G1 X124.401 Y105.063 E.01715
G1 X124.455 Y104.518 E.01715
G1 X124.613 Y103.995 E.01715
G1 X124.871 Y103.512 E.01715
G1 X125.218 Y103.089 E.01715
G1 X125.641 Y102.742 E.01715
G1 X126.128 Y102.482 E.0173
G1 X126.691 Y102.321 E.01835
G1 X127.192 Y102.272 E.01579
G1 X127.736 Y102.325 E.01715
G1 X128.26 Y102.484 E.01715
G1 X128.742 Y102.742 E.01715
G1 X129.165 Y103.089 E.01715
G1 X129.512 Y103.512 E.01715
G1 X129.77 Y103.995 E.01715
G1 X129.929 Y104.518 E.01715
G1 X129.983 Y105.063 E.01715
G1 X129.929 Y105.607 E.01715
G1 X129.77 Y106.131 E.01715
G1 X129.512 Y106.613 E.01715
G1 X129.165 Y107.036 E.01715
G1 X128.742 Y107.383 E.01715
G1 X128.26 Y107.641 E.01715
G1 X127.736 Y107.8 E.01715
G1 X127.192 Y107.854 E.01715
G1 X126.817 Y107.817 E.01183
M204 S1000
G1 X127.192 Y107.475 F10800
M204 S800
;TYPE:External perimeter
G1 F1200
G1 X126.721 Y107.428 E.01483
G1 X126.269 Y107.291 E.01483
G1 X125.852 Y107.068 E.01483
G1 X125.486 Y106.768 E.01483
G1 X125.186 Y106.403 E.01483
G1 X124.963 Y105.986 E.01483
G1 X124.826 Y105.533 E.01483
G1 X124.78 Y105.063 E.01483
G1 X124.826 Y104.592 E.01483
G1 X124.963 Y104.14 E.01483
G1 X125.186 Y103.723 E.01483
G1 X125.486 Y103.357 E.01483
G1 X125.852 Y103.057 E.01483
G1 X126.27 Y102.833 E.01488
G1 X126.762 Y102.693 E.01602
G1 X127.192 Y102.651 E.01355
G1 X127.662 Y102.697 E.01483
G1 X128.115 Y102.834 E.01483
G1 X128.532 Y103.057 E.01483
G1 X128.897 Y103.357 E.01483
G1 X129.197 Y103.723 E.01483
G1 X129.42 Y104.14 E.01483
G1 X129.557 Y104.592 E.01483
G1 X129.604 Y105.063 E.01483
G1 X129.557 Y105.533 E.01483
G1 X129.42 Y105.986 E.01483
G1 X129.197 Y106.403 E.01483
G1 X128.897 Y106.768 E.01483
G1 X128.532 Y107.068 E.01483
G1 X128.115 Y107.291 E.01483
G1 X127.662 Y107.428 E.01483
G1 X127.252 Y107.469 E.01294
M204 S1000
G1 X126.992 Y107.821 F10800
;WIPE_START
G1 F8640
G1 X126.721 Y107.428 E-.12279
G1 X126.269 Y107.291 E-.10918
G1 X125.852 Y107.068 E-.10918
G1 X125.486 Y106.768 E-.10918
G1 X125.186 Y106.403 E-.10918
G1 X124.963 Y105.986 E-.10918
G1 X124.849 Y105.607 E-.09131
;WIPE_END
G1 E-.04 F2100
G1 Z.6 F720
